X:1
L:1/8
M:6/8
K:Bb
|: fdB fdB | bag fdB | fdB fdB | Ace dcB | fdB fdB | bag f=ef | cd=e fef | cd=e f3 :: cAF cAF | 
 cdc cAF | Bdf fdB | cdB A2 G | FDB, BFD | fdB bfd | efg fbB | FGA B3 |]:[M:12/8][K:A] a | 
 ecd ecd ecd e2 a | fde fde fde faf | ecd ecd ecd efg | aec ecA B3 !fermata!A2 :: c | 
 AFG AFG AFG ABc | dcB AGF ^EFG C2 c | dcB cfc dcB cFc | dcB cfB ABG""_D.C."" F2 :|
